assets/icons/drive/multidisk-filled.svg

<?xml version="1.0" encoding="UTF-8" standalone="no"?>
<svg viewBox="0 0 24 24" height="24" width="24" version="1.1" id="svg12" sodipodi:docname="multidisk-filled.svg" inkscape:version="1.1 (ce6663b3b7, 2021-05-25)"
   xmlns:inkscape="http://www.inkscape.org/namespaces/inkscape"
   xmlns:sodipodi="http://sodipodi.sourceforge.net/DTD/sodipodi-0.dtd"
   xmlns="http://www.w3.org/2000/svg"
   xmlns:svg="http://www.w3.org/2000/svg">
   <defs id="defs16" />
   <sodipodi:namedview id="namedview14" pagecolor="#ffffff" bordercolor="#666666" borderopacity="1.0" inkscape:pageshadow="2" inkscape:pageopacity="0.0" inkscape:pagecheckerboard="0" showgrid="false" inkscape:zoom="28" inkscape:cx="9.7678571" inkscape:cy="8.4642857" inkscape:window-width="1920" inkscape:window-height="1043" inkscape:window-x="1920" inkscape:window-y="0" inkscape:window-maximized="1" inkscape:current-layer="svg12" />
   <path id="path860" style="color:#000000;fill:#808080;fill-opacity:1;-inkscape-stroke:none" d="M 8.4550781 4 C 7.4864972 4.0089807 6.737259 4.0732694 6.1171875 4.4453125 C 5.7038055 4.6933412 5.3972496 5.10122 5.2285156 5.6074219 C 5.0597816 6.1136238 5 6.722223 5 7.5 L 5 18.5 C 5 19.277777 5.0597796 19.886376 5.2285156 20.392578 C 5.3972496 20.89878 5.7038055 21.306659 6.1171875 21.554688 C 6.9439495 22.050746 8.000001 22 9.5 22 L 16.5 22 C 17.999998 22 19.05605 22.05074 19.882812 21.554688 C 20.296194 21.306659 20.60275 20.89878 20.771484 20.392578 C 20.940218 19.886376 21 19.277777 21 18.5 L 21 7.5 C 21 6.722223 20.94022 6.1136238 20.771484 5.6074219 C 20.60275 5.10122 20.296194 4.6933412 19.882812 4.4453125 C 19.056051 3.9492552 17.999998 4 16.5 4 L 9.5 4 C 9.1250002 4 8.7779384 3.9970064 8.4550781 4 z M 12.925781 9 C 13.015953 8.99868 13.106916 9.0003363 13.197266 9.0039062 C 14.523895 9.061088 15.773292 9.643625 16.669922 10.623047 L 17.353516 11.353516 L 15.853516 12.853516 L 15.146484 12.146484 L 15.964844 11.328125 C 14.833343 10.070561 13.033081 9.66077 11.46875 10.304688 C 9.614747 11.073184 8.6172487 13.096583 9.1367188 15.035156 C 9.6565407 16.973314 11.531942 18.226366 13.521484 17.964844 C 15.511529 17.703167 16.99949 16.007176 17 14 L 18 14 C 17.999884 16.509178 16.140074 18.629662 13.652344 18.957031 C 11.164899 19.284724 8.8197669 17.718239 8.1699219 15.294922 C 7.5201549 12.871135 8.7675895 10.341173 11.085938 9.3808594 C 11.670633 9.1385819 12.294576 9.00928 12.925781 9 z M 13 12 A 2 2 0 0 1 15 14 A 2 2 0 0 1 13 16 A 2 2 0 0 1 11 14 A 2 2 0 0 1 13 12 z M 13 13 A 1 1 0 0 0 12 14 A 1 1 0 0 0 13 15 A 1 1 0 0 0 14 14 A 1 1 0 0 0 13 13 z " />
   <path style="color:#000000;fill:#808080;fill-opacity:1;-inkscape-stroke:none" d="m 7.5,2.0000002 c -1.4999985,0 -2.5560503,-0.050745 -3.3828125,0.4453125 -0.4133811,0.2480287 -0.7199379,0.6559075 -0.8886719,1.1621094 -0.1687339,0.5062019 -0.2285156,1.1148011 -0.2285156,1.8925781 v 11.4999998 h 1 v -11.4999998 c 0,-0.7222215 0.065219,-1.2386246 0.1777344,-1.5761719 0.1125157,-0.3375472 0.2434598,-0.4921696 0.4550781,-0.6191406 0.4232365,-0.2539419 1.367189,-0.3046875 2.8671875,-0.3046875 h 8.5 v -1 z" id="path975" sodipodi:nodetypes="ssssccssssccs" />
</svg>

<svg height="24" width="24" xmlns="http://www.w3.org/2000/svg"><path style="color:#000;fill:gray;fill-opacity:1;-inkscape-stroke:none" d="M8.455 4c-.969.009-1.718.073-2.338.445-.413.248-.72.656-.888 1.162C5.059 6.114 5 6.722 5 7.5v11c0 .778.06 1.386.229 1.893.168.506.475.914.888 1.162C6.944 22.05 8 22 9.5 22h7c1.5 0 2.556.05 3.383-.445.413-.248.72-.656.888-1.162.17-.507.229-1.115.229-1.893v-11c0-.778-.06-1.386-.229-1.893-.168-.506-.475-.914-.888-1.162C19.056 3.95 18 4 16.5 4h-7c-.375 0-.722-.003-1.045 0zm4.47 5a5 5 0 0 1 3.744 1.623l.685.73-1.5 1.5-.708-.707.819-.818a4 4 0 0 0-4.496-1.023A4 4 0 1 0 17 14h1a5 5 0 1 1-5.074-5zM13 12a2 2 0 0 1 2 2 2 2 0 0 1-2 2 2 2 0 0 1-2-2 2 2 0 0 1 2-2zm0 1a1 1 0 0 0-1 1 1 1 0 0 0 1 1 1 1 0 0 0 1-1 1 1 0 0 0-1-1z"/><path style="color:#000;fill:gray;fill-opacity:1;-inkscape-stroke:none" d="M7.5 2c-1.5 0-2.556-.05-3.383.445-.413.248-.72.656-.888 1.162C3.059 4.114 3 4.722 3 5.5V17h1V5.5c0-.722.065-1.239.178-1.576.112-.338.243-.492.455-.62C5.056 3.052 6 3 7.5 3H16V2z"/></svg>
